korla/apps/scalable/mstdn.svg

<svg width="48" height="48" xmlns="http://www.w3.org/2000/svg">
 <path d="m18 5c-6.648 0-12 5.430561-12 12.175781v6.648438c0 .144485.016613.284496.021484.427734.07553 4.681749.6485998 13.189434 3.7851562 16.761719 3.0589548 3.483902 10.1940928 3.986328 13.0761718 3.986328 5.121875 0 8.117188-2.005859 8.117188-2.005859v-3.007813s-3.802747 1.078474-7.451172 1.013672c-2.505397-.0445-4.938319-.700936-6.015625-2.324219-.455822-.686833-.301244-1.562168-.533203-2.675781-.0034-.01627-.0064-.03444-.0098-.05078.333634.028012.668835.05078 1.0098.05078h12c6.648 0 12-5.430561 12-12.175781v-6.648438c0-6.74522-5.352-12.175781-12-12.175781z" opacity=".2"/>
 <rect x="6" y="4" width="36" height="31" rx="12" ry="12.175" fill="#3088d4"/>
 <path d="m6.032951 20h10.566226s-.74784 9.485369.400823 15c.231959 1.113613.0773 1.988257.533122 2.67509 1.077306 1.623283 3.509592 2.28041 6.014989 2.32491 3.648425.064802 7.451889-1.014441 7.451889-1.014441v3.008665s-2.996046 2.005776-8.11792 2.005776c-2.88208 0-10.016276-.501658-13.0752301-3.98556-4.4190487-5.03294-3.7738989-20.01444-3.7738989-20.01444z" fill="#3088d4"/>
 <circle cx="16" cy="17" r="2" opacity=".2"/>
 <g fill="#fff">
  <circle cx="16" cy="16" r="2"/>
  <path d="m18 4c-6.648 0-12 5.4305608-12 12.175781v1c0-6.74522 5.352-12.175781 12-12.175781h12c6.648 0 12 5.430561 12 12.175781v-1c0-6.7452202-5.352-12.175781-12-12.175781zm-1.009766 31.949219c.0034.01634.006366.034511.009766.050781.231959 1.113613.077381 1.988948.533203 2.675781 1.077306 1.623283 3.510228 2.279719 6.015625 2.324219 3.648425.064802 7.451172-1.013672 7.451172-1.013672v-1s-3.802747 1.078474-7.451172 1.013672c-2.505397-.0445-4.938319-.700936-6.015625-2.324219-.315108-.474806-.339339-1.047333-.400391-1.71875-.047193-.003697-.095458-.003856-.142578-.007812z" opacity=".2"/>
 </g>
</svg>

<svg xmlns="http://www.w3.org/2000/svg" width="48" height="48" version="1.1">
 <path style="opacity:0.2" d="M 18,5 C 11.352,5 6,10.430561 6,17.175781 v 6.648438 c 0,0.144485 0.016613,0.284496 0.021484,0.427734 0.07553,4.681749 0.6485998,13.189434 3.7851562,16.761719 C 12.865595,44.497574 20.000733,45 22.882812,45 28.004687,45 31,42.994141 31,42.994141 v -3.007813 c 0,0 -3.802747,1.078474 -7.451172,1.013672 C 21.043431,40.9555 18.610509,40.299064 17.533203,38.675781 17.077381,37.988948 17.231959,37.113613 17,36 c -0.0034,-0.01627 -0.0064,-0.03444 -0.0098,-0.05078 C 17.323834,35.977232 17.659035,36 18,36 h 12 c 6.648,0 12,-5.430561 12,-12.175781 V 17.175781 C 42,10.430561 36.648,5 30,5 Z"/>
 <rect style="fill:#3088d4" width="36" height="31" x="6" y="4" rx="12" ry="12.175"/>
 <path style="fill:#3088d4" d="m 6.032951,20 h 10.566226 c 0,0 -0.74784,9.485369 0.400823,15 0.231959,1.113613 0.0773,1.988257 0.533122,2.67509 C 18.610428,39.298373 21.042714,39.9555 23.548111,40 27.196536,40.064802 31,38.985559 31,38.985559 v 3.008665 C 31,41.994224 28.003954,44 22.88208,44 20,44 12.865804,43.498342 9.8068499,40.01444 5.3878012,34.9815 6.032951,20 6.032951,20 Z"/>
 <circle style="opacity:0.2" cx="16" cy="17" r="2"/>
 <circle style="fill:#ffffff" cx="16" cy="16" r="2"/>
 <path style="opacity:0.2;fill:#ffffff" d="M 18 4 C 11.352 4 6 9.4305608 6 16.175781 L 6 17.175781 C 6 10.430561 11.352 5 18 5 L 30 5 C 36.648 5 42 10.430561 42 17.175781 L 42 16.175781 C 42 9.4305608 36.648 4 30 4 L 18 4 z M 16.990234 35.949219 C 16.993634 35.965559 16.9966 35.98373 17 36 C 17.231959 37.113613 17.077381 37.988948 17.533203 38.675781 C 18.610509 40.299064 21.043431 40.9555 23.548828 41 C 27.197253 41.064802 31 39.986328 31 39.986328 L 31 38.986328 C 31 38.986328 27.197253 40.064802 23.548828 40 C 21.043431 39.9555 18.610509 39.299064 17.533203 37.675781 C 17.218095 37.200975 17.193864 36.628448 17.132812 35.957031 C 17.085619 35.953334 17.037354 35.953175 16.990234 35.949219 z"/>
</svg>
